X: 10352
M: 6/8
L: 1/8
K: G
uD |\
(uf/g/) |\
(a2d) (c'2b) | agf {a}gfg | (a2d) (c'2b) | agf (.g2.d) |\
ec'c' dbb | caa Bgg | cBA (d2F) | A<GG G2 ||
z |\
vB3 A>GA | A>GG G3 | d3 c>Bc | c>BB (B2g) |\
(g2f) (f2e) | (e2d) (d2c) | B>cd d>cB | B>AA A2 ||
ud |\
ggg gdB | edd dfa | c'c'c' c'af | a<gg (g2d) |\
ec'c' dbb | caa Bgg | c>BA (d2F) | A<GG G2 "_D.C."|]


